public/static/icons/setting.svg

<svg width="34" height="34" viewBox="0 0 34 34" fill="none" xmlns="http://www.w3.org/2000/svg">
<path d="M30.1208 15.7591C30.0206 14.5132 29.7464 13.3011 29.3017 12.1394L32.3657 9.68538L27.3867 3.46829L24.3412 5.90706C23.2898 5.19878 22.1527 4.65185 20.9466 4.2748V0.404907H12.9811V4.30003C11.7199 4.70365 10.5363 5.29374 9.44642 6.06172L6.36909 3.6701L1.48093 9.95951L4.61271 12.393C4.19455 13.5573 3.94559 14.768 3.86929 16.0093L0 16.9353L1.85333 24.6817L4.57552 24.0305C5.91646 22.6896 7.12705 21.479 8.71887 19.8872C6.60311 14.145 10.8566 8.00663 17.0056 8.00663C21.8812 8.00663 25.834 11.9595 25.834 16.835C25.834 22.8568 19.9251 27.1087 14.2277 25.2167C13.7726 25.6718 9.05768 30.3867 8.32522 31.1191L13.5778 33.5951L15.3249 29.8885C16.5317 30.0438 17.7358 30.0312 18.9193 29.8586L20.7089 33.5161L27.8639 30.0153L26.079 26.3671C26.9632 25.5261 27.7212 24.5735 28.3405 23.5228L32.2602 24.4003L34 16.6273L30.1208 15.7591Z" fill="black" fill-opacity="0.2"/>
<path d="M22.6638 14.5469L22.1049 13.1411L18.7415 16.5038L17.2307 14.993L20.5941 11.6303L19.1882 11.0706C13.6853 8.88183 8.59791 14.9022 11.4856 19.9362C4.05705 27.3648 10.4056 21.017 1.48096 29.9416L4.08368 32.5443C9.26809 27.3599 4.2323 32.3964 14.1813 22.4474C19.26 24.9104 24.7587 19.8099 22.6638 14.5469Z" fill="black" fill-opacity="0.2"/>
</svg>

<svg width="34" height="34" fill="none" xmlns="http://www.w3.org/2000/svg"><path d="M30.12 15.76a13.014 13.014 0 0 0-.818-3.62l3.064-2.455-4.98-6.217-3.045 2.44a13.006 13.006 0 0 0-3.394-1.633V.405H12.98V4.3a12.992 12.992 0 0 0-3.535 1.762L6.37 3.67 1.481 9.96l3.132 2.433a13.033 13.033 0 0 0-.744 3.616L0 16.935l1.853 7.747 2.723-.651 4.143-4.144c-2.116-5.742 2.138-11.88 8.287-11.88a8.829 8.829 0 0 1 8.828 8.828c0 6.022-5.909 10.274-11.606 8.382l-5.903 5.902 5.253 2.476 1.747-3.706c1.207.155 2.41.142 3.594-.03l1.79 3.657 7.155-3.5-1.785-3.649a13.091 13.091 0 0 0 2.261-2.844l3.92.877L34 16.627l-3.88-.868Z" fill="#000" fill-opacity=".2"/><path d="m22.664 14.547-.56-1.406-3.363 3.363-1.51-1.511 3.363-3.363-1.406-.56c-5.503-2.188-10.59 3.832-7.702 8.866L1.48 29.942l2.603 2.602L14.18 22.447c5.079 2.463 10.578-2.637 8.483-7.9Z" fill="#000" fill-opacity=".2"/></svg>
